Yaru++/mimetypes/16/source-smart-playlist.svg

<svg height="16" width="16" xmlns="http://www.w3.org/2000/svg">
  <path d="m11.5 1c-.277 0-.5.223-.5.5v9.533203c-.612753-.257139-1.378939-.167432-2.035156.238281-1.069061.661333-1.531798 1.948949-1.033203 2.875.497828.92603 1.767689 1.140298 2.835937.478516.772887-.478966 1.256769-1.310781 1.230469-2.115234.000069-.003446.001953-.006303.001953-.009766v-8.125c.120375-.06646.30739.07692.40625.144531 1.123434.679677 2.10425 1.807595 2.173828 3.197266.06019.803876-.108179 1.603413-.339844 2.367187 1.032758-1.699155.977219-4.063122-.298828-5.615234-.823106-.858866-1.599301-1.860054-1.941406-3.0234375-.024947-.1105057-.175857-.4453125-.5-.4453125zm-10 1c-.277 0-.5.223-.5.5s.223.5.5.5h6c.277 0 .5-.223.5-.5s-.223-.5-.5-.5zm0 3c-.277 0-.5.223-.5.5s.223.5.5.5h6c.277 0 .5-.223.5-.5s-.223-.5-.5-.5zm0 3c-.277 0-.5.223-.5.5s.223.5.5.5h6c.277 0 .5-.223.5-.5s-.223-.5-.5-.5zm0 3c-.277 0-.5.223-.5.5s.223.5.5.5h3c.277 0 .5-.223.5-.5s-.223-.5-.5-.5z" fill="#808080"/>
</svg>

<?xml version="1.0" encoding="UTF-8" standalone="no"?>
<svg
   xmlns:dc="http://purl.org/dc/elements/1.1/"
   xmlns:cc="http://creativecommons.org/ns#"
   xmlns:rdf="http://www.w3.org/1999/02/22-rdf-syntax-ns#"
   xmlns:svg="http://www.w3.org/2000/svg"
   xmlns="http://www.w3.org/2000/svg"
   xmlns:sodipodi="http://sodipodi.sourceforge.net/DTD/sodipodi-0.dtd"
   xmlns:inkscape="http://www.inkscape.org/namespaces/inkscape"
   width="16"
   height="16"
   version="1.1"
   id="svg4"
   sodipodi:docname="source-playlist.svg"
   inkscape:version="0.92.3 (2405546, 2018-03-11)">
  <metadata
     id="metadata10">
    <rdf:RDF>
      <cc:Work
         rdf:about="">
        <dc:format>image/svg+xml</dc:format>
        <dc:type
           rdf:resource="http://purl.org/dc/dcmitype/StillImage" />
      </cc:Work>
    </rdf:RDF>
  </metadata>
  <defs
     id="defs8" />
  <sodipodi:namedview
     pagecolor="#ffffff"
     bordercolor="#666666"
     borderopacity="1"
     objecttolerance="10"
     gridtolerance="10"
     guidetolerance="10"
     inkscape:pageopacity="0"
     inkscape:pageshadow="2"
     inkscape:window-width="1197"
     inkscape:window-height="833"
     id="namedview6"
     showgrid="false"
     inkscape:zoom="14.75"
     inkscape:cx="8"
     inkscape:cy="8"
     inkscape:window-x="0"
     inkscape:window-y="34"
     inkscape:window-maximized="0"
     inkscape:current-layer="svg4" />
  <path
     d="M 11.5,1 C 11.223,1 11,1.223 11,1.5 l 0,9.533203 c -0.612753,-0.257139 -1.378939,-0.167432 -2.035156,0.238281 -1.069061,0.661333 -1.531798,1.948949 -1.033203,2.875 0.497828,0.92603 1.767689,1.140298 2.835937,0.478516 0.772887,-0.478966 1.256769,-1.310781 1.230469,-2.115234 C 11.998116,12.50632 12,12.503463 12,12.5 l 0,-8.125 c 0.120375,-0.06646 0.30739,0.07692 0.40625,0.144531 1.123434,0.679677 2.10425,1.807595 2.173828,3.197266 0.06019,0.803876 -0.108179,1.603413 -0.339844,2.367187 C 15.272992,8.384829 15.217453,6.020862 13.941406,4.46875 13.1183,3.609884 12.342105,2.608696 12,1.4453125 11.975053,1.3348068 11.824143,1 11.5,1 Z M 1.5,2 C 1.223,2 1,2.223 1,2.5 1,2.777 1.223,3 1.5,3 l 6,0 C 7.777,3 8,2.777 8,2.5 8,2.223 7.777,2 7.5,2 Z m 0,3 C 1.223,5 1,5.223 1,5.5 1,5.777 1.223,6 1.5,6 l 6,0 C 7.777,6 8,5.777 8,5.5 8,5.223 7.777,5 7.5,5 Z m 0,3 C 1.223,8 1,8.223 1,8.5 1,8.777 1.223,9 1.5,9 l 6,0 C 7.777,9 8,8.777 8,8.5 8,8.223 7.777,8 7.5,8 Z m 0,3 C 1.223,11 1,11.223 1,11.5 1,11.777 1.223,12 1.5,12 l 3,0 C 4.777,12 5,11.777 5,11.5 5,11.223 4.777,11 4.5,11 Z"
     style="fill:#808080;fill-opacity:1"
     id="path2" />
</svg>
